packages/sources/assets/src/assets/flag-eg.svg

<svg width="28" height="20" viewBox="0 0 28 20" fill="none" xmlns="http://www.w3.org/2000/svg">
<rect x="0.25" y="0.25" width="27.5" height="19.5" rx="1.75" fill="white" stroke="#F5F5F5" stroke-width="0.5"/>
<mask id="mask0_503_2842" style="mask-type:alpha" maskUnits="userSpaceOnUse" x="0" y="0" width="28" height="20">
<rect x="0.25" y="0.25" width="27.5" height="19.5" rx="1.75" fill="white" stroke="white" stroke-width="0.5"/>
</mask>
<g mask="url(#mask0_503_2842)">
<path fill-rule="evenodd" clip-rule="evenodd" d="M0 6.66667H28V0H0V6.66667Z" fill="#E41D33"/>
<path fill-rule="evenodd" clip-rule="evenodd" d="M0 20H28V13.3333H0V20Z" fill="#262626"/>
<path d="M12.3685 9.4824L12.6528 10.0509L12.9588 9.49398L12.9588 9.49396L12.9588 9.49391L12.9588 9.49382L12.9589 9.49366L12.9601 9.49162L12.9654 9.48219C12.9702 9.4736 12.9777 9.46052 12.9875 9.44361C13.0072 9.40975 13.0363 9.3607 13.0733 9.30155C13.1475 9.18264 13.2514 9.0259 13.3715 8.8708C13.4932 8.71374 13.6234 8.56902 13.7489 8.46658C13.883 8.3572 13.9662 8.33333 14 8.33333C14.0573 8.33333 14.1511 8.3644 14.2814 8.46862C14.407 8.56914 14.5336 8.71141 14.65 8.86667C14.765 9.01999 14.8621 9.17512 14.9308 9.29296C14.965 9.35153 14.9917 9.40005 15.0096 9.43345C15.0185 9.45013 15.0252 9.46298 15.0296 9.47137L15.0342 9.48049L15.0352 9.48238L15.0352 9.4824L15.0353 9.48251L15.0353 9.48258L15.0353 9.48263L15.3334 10.0787L15.6315 9.4824L16.206 8.33333L16.6667 8.33333C16.8508 8.33333 17 8.48257 17 8.66667V10.7543C17 11.0206 16.7033 11.1794 16.4818 11.0317L15.5183 10.3893L15.4343 10.3333H15.3334H14.6667H14.3334V10.6667V11.3333C14.3334 11.5174 14.1841 11.6667 14 11.6667C13.8159 11.6667 13.6667 11.5174 13.6667 11.3333V10.6667V10.3333H13.3334H12.6667H12.5658L12.4818 10.3893L11.5183 11.0317C11.2967 11.1794 11 11.0206 11 10.7543V8.66667C11 8.48257 11.1493 8.33333 11.3334 8.33333L11.794 8.33333L12.3685 9.4824Z" fill="#F4B32E" fill-opacity="0.25" stroke="#C6A846" stroke-width="0.666667"/>
</g>
</svg>

<svg width="28" height="20" fill="none" xmlns="http://www.w3.org/2000/svg"><rect x=".25" y=".25" width="27.5" height="19.5" rx="1.75" fill="#fff" stroke="#F5F5F5" stroke-width=".5"/><mask id="a" style="mask-type:alpha" maskUnits="userSpaceOnUse" x="0" y="0" width="28" height="20"><rect x=".25" y=".25" width="27.5" height="19.5" rx="1.75" fill="#fff" stroke="#fff" stroke-width=".5"/></mask><g mask="url(#a)"><path fill-rule="evenodd" clip-rule="evenodd" d="M0 6.667h28V0H0v6.667Z" fill="#E41D33"/><path fill-rule="evenodd" clip-rule="evenodd" d="M0 20h28v-6.667H0V20Z" fill="#262626"/><path d="m12.368 9.482.285.569.306-.557.001-.002.005-.01a3.158 3.158 0 0 1 .108-.18 5.32 5.32 0 0 1 .298-.431 2.52 2.52 0 0 1 .378-.404c.134-.11.217-.134.251-.134.057 0 .151.031.281.136.126.1.253.242.369.398a4.51 4.51 0 0 1 .36.566l.02.038.004.01.001.001.298.597.299-.597.574-1.149h.46c.185 0 .334.15.334.334v2.087a.333.333 0 0 1-.518.278l-.964-.643-.084-.056h-1.101v1a.333.333 0 0 1-.666 0v-1h-1.101l-.084.056-.964.643a.333.333 0 0 1-.518-.278V8.667c0-.184.15-.334.333-.334h.461l.574 1.15Z" fill="#F4B32E" fill-opacity=".25" stroke="#C6A846" stroke-width=".667"/></g></svg>
